actions/symbolic/process-stop-symbolic.svg

<svg viewBox="0 0 16 16" xmlns="http://www.w3.org/2000/svg"><path d="m13.195474 4.988256c-.536511-.919216-1.264324-1.647024-2.183536-2.183536-.919403-.536512-1.923095-.80472-3.0117462-.80472-1.0885554 0-2.0925349.268208-3.0117467.80472-.9193077.536416-1.6471209 1.264224-2.1836313 2.183536-.5366065.919304-.8048138 1.923288-.8048138 3.011744 0 1.088552.2683032 2.092344.8047178 3.011744.5365106.91912 1.2643238 1.647024 2.1836314 2.183536.9193077.536512 1.9231913.80472 3.0117467.80472s2.0925341-.268208 3.0117461-.80472c.919212-.536416 1.647025-1.26432 2.183536-2.183536.536415-.919304.804622-1.923288.804622-3.011744 0-1.088552-.268207-2.092536-.804526-3.011744zm-2.367263 4.425752c.09896.09886.148535.21624.148535.351632 0 .140576-.04958.26044-.148535.359304l-.703073.703168c-.09896.09896-.2187276.14844-.3593996.14844-.1353984 0-.2527691-.04952-.351537-.14844l-1.4141055-1.414104-1.4141056 1.414104c-.09896.09896-.2161385.14844-.3515366.14844-.1406723 0-.2604402-.04952-.3593998-.14844l-.7031692-.703168c-.09896-.09886-.1484393-.218728-.1484393-.359304 0-.135392.04948-.252768.1484393-.351632l1.4141056-1.414008-1.4141056-1.414104c-.0989596-.098864-.1484393-.216144-.1484393-.351536 0-.140672.04948-.26044.1484393-.3594l.7031692-.703072c.09896-.09896.2187275-.14844.3593998-.14844.1353981 0 .252577.04952.3515366.14844l1.4141056 1.414008 1.4141055-1.414008c.098768-.09896.2161386-.14844.351537-.14844.140672 0 .2604396.04952.3593996.14844l.703073.703072c.09896.09896.148535.218728.148535.3594 0 .135392-.04958.252672-.148535.351536l-1.4140096 1.414104z" fill="#da4453"/></svg>

<?xml version="1.0" encoding="UTF-8" standalone="no"?>
<svg
   xmlns:dc="http://purl.org/dc/elements/1.1/"
   xmlns:cc="http://creativecommons.org/ns#"
   xmlns:rdf="http://www.w3.org/1999/02/22-rdf-syntax-ns#"
   xmlns:svg="http://www.w3.org/2000/svg"
   xmlns="http://www.w3.org/2000/svg"
   xmlns:sodipodi="http://sodipodi.sourceforge.net/DTD/sodipodi-0.dtd"
   xmlns:inkscape="http://www.inkscape.org/namespaces/inkscape"
   viewBox="0 0 16 16"
   id="svg2"
   version="1.1"
   inkscape:version="0.91 r13725"
   sodipodi:docname="process-stop-symbolic.svg">
  <metadata
     id="metadata10">
    <rdf:RDF>
      <cc:Work
         rdf:about="">
        <dc:format>image/svg+xml</dc:format>
        <dc:type
           rdf:resource="http://purl.org/dc/dcmitype/StillImage" />
      </cc:Work>
    </rdf:RDF>
  </metadata>
  <sodipodi:namedview
     pagecolor="#ffffff"
     bordercolor="#666666"
     borderopacity="1"
     objecttolerance="10"
     gridtolerance="10"
     guidetolerance="10"
     inkscape:pageopacity="0"
     inkscape:pageshadow="2"
     inkscape:window-width="640"
     inkscape:window-height="480"
     id="namedview8"
     showgrid="false"
     inkscape:zoom="41.1875"
     inkscape:cx="3.6783005"
     inkscape:cy="8"
     inkscape:current-layer="svg2" />
  <defs
     id="defs3051">
    <style
       type="text/css"
       id="current-color-scheme">
      .ColorScheme-NegativeText {
        color:#da4453;
      }
      </style>
  </defs>
  <path
     style="color:#da4453;fill:currentColor;fill-opacity:1;stroke:none"
     class="ColorScheme-NegativeText"
     d="M 13.195474,4.988256 C 12.658963,4.06904 11.93115,3.341232 11.011938,2.80472 10.092535,2.268208 9.088843,2 8.0001918,2 6.9116364,2 5.9076569,2.268208 4.9884451,2.80472 4.0691374,3.341136 3.3413242,4.068944 2.8048138,4.988256 2.2682073,5.90756 2,6.911544 2,8 c 0,1.088552 0.2683032,2.092344 0.8047178,3.011744 0.5365106,0.91912 1.2643238,1.647024 2.1836314,2.183536 C 5.9076569,13.731792 6.9115405,14 8.0000959,14 9.0886513,14 10.09263,13.731792 11.011842,13.19528 11.931054,12.658864 12.658867,11.93096 13.195378,11.011744 13.731793,10.09244 14,9.088456 14,8 14,6.911448 13.731793,5.907464 13.195474,4.988256 l 0,0 z m -2.367263,4.425752 c 0.09896,0.09886 0.148535,0.21624 0.148535,0.351632 0,0.140576 -0.04958,0.26044 -0.148535,0.359304 l -0.703073,0.703168 c -0.09896,0.09896 -0.2187276,0.14844 -0.3593996,0.14844 -0.1353984,0 -0.2527691,-0.04952 -0.351537,-0.14844 L 8.0000959,9.414008 6.5859903,10.828112 c -0.09896,0.09896 -0.2161385,0.14844 -0.3515366,0.14844 -0.1406723,0 -0.2604402,-0.04952 -0.3593998,-0.14844 L 5.1718847,10.124944 C 5.0729247,10.026084 5.0234454,9.906216 5.0234454,9.76564 c 0,-0.135392 0.04948,-0.252768 0.1484393,-0.351632 L 6.5859903,8 5.1718847,6.585896 C 5.0729251,6.487032 5.0234454,6.369752 5.0234454,6.23436 c 0,-0.140672 0.04948,-0.26044 0.1484393,-0.3594 L 5.8750539,5.171888 c 0.09896,-0.09896 0.2187275,-0.14844 0.3593998,-0.14844 0.1353981,0 0.252577,0.04952 0.3515366,0.14844 L 8.0000959,6.585896 9.4142014,5.171888 c 0.098768,-0.09896 0.2161386,-0.14844 0.351537,-0.14844 0.140672,0 0.2604396,0.04952 0.3593996,0.14844 l 0.703073,0.703072 c 0.09896,0.09896 0.148535,0.218728 0.148535,0.3594 0,0.135392 -0.04958,0.252672 -0.148535,0.351536 L 9.4142014,8 l 1.4140096,1.414008 0,0 z"
     id="path6"
     inkscape:connector-curvature="0" />
</svg>
